src/assets/icons/months,fancy,june-6.svg

<svg width="48" height="48" viewBox="0 0 48 48" fill="none" xmlns="http://www.w3.org/2000/svg">
<rect opacity="0.2" x="4" y="6" width="40" height="40" rx="4" fill="black"/>
<path d="M13.3892 24.3636V32.4773C13.3835 33.5966 12.8835 34.1875 11.9744 34.1875C11.1165 34.1875 10.5597 33.6534 10.5426 32.7273H8.09375C8.08239 35.0511 9.74148 36.1591 11.8494 36.1591C14.2074 36.1591 15.8153 34.733 15.821 32.4773V24.3636H13.3892ZM25.0426 24.3636V31.7102C25.0426 33.0398 24.1108 34 22.679 34C21.2528 34 20.3153 33.0398 20.3153 31.7102V24.3636H17.8551V31.9205C17.8551 34.4659 19.7756 36.1648 22.679 36.1648C25.571 36.1648 27.5028 34.4659 27.5028 31.9205V24.3636H25.0426ZM39.2599 24.3636H36.8111V31.6818H36.7088L31.6861 24.3636H29.527V36H31.9872V28.6761H32.0724L37.1349 36H39.2599V24.3636Z" fill="black"/>
<g opacity="0.4">
<path d="M10 4C10 2.89543 10.8954 2 12 2C13.1046 2 14 2.89543 14 4V8C14 9.10457 13.1046 10 12 10C10.8954 10 10 9.10457 10 8V4Z" fill="black"/>
<path d="M34 4C34 2.89543 34.8954 2 36 2C37.1046 2 38 2.89543 38 4V8C38 9.10457 37.1046 10 36 10C34.8954 10 34 9.10457 34 8V4Z" fill="black"/>
</g>
<path fill-rule="evenodd" clip-rule="evenodd" d="M10 6.00869C7.52043 6.04456 6.11466 6.22849 5.17157 7.17157C4 8.34315 4 10.2288 4 14V16H44V14C44 10.2288 44 8.34315 42.8284 7.17157C41.8853 6.22849 40.4796 6.04456 38 6.00869V8C38 9.10457 37.1046 10 36 10C34.8954 10 34 9.10457 34 8V6H14V8C14 9.10457 13.1046 10 12 10C10.8954 10 10 9.10457 10 8V6.00869Z" fill="black"/>
</svg>

<svg xmlns="http://www.w3.org/2000/svg" width="48" height="48" fill="none" viewBox="0 0 48 48">
  <rect width="40" height="40" x="4" y="6" fill="#000" opacity=".2" rx="4"/>
  <path fill="#000" d="M13.39 24.364v8.113c-.007 1.12-.507 1.71-1.416 1.71-.857 0-1.414-.534-1.431-1.46h-2.45c-.01 2.324 1.648 3.432 3.756 3.432 2.358 0 3.966-1.426 3.972-3.682v-8.113h-2.432zm11.653 0v7.346c0 1.33-.932 2.29-2.364 2.29-1.426 0-2.364-.96-2.364-2.29v-7.346h-2.46v7.556c0 2.546 1.92 4.245 4.824 4.245 2.892 0 4.824-1.7 4.824-4.244v-7.557h-2.46zm14.217 0H36.81v7.318h-.102l-5.023-7.318h-2.159V36h2.46v-7.324h.085L37.135 36h2.125V24.364z"/>
  <g opacity=".4">
    <path fill="#000" d="M10 4a2 2 0 114 0v4a2 2 0 11-4 0V4zM34 4a2 2 0 114 0v4a2 2 0 11-4 0V4z"/>
  </g>
  <path fill="#000" fill-rule="evenodd" d="M10 6.009c-2.48.036-3.885.22-4.828 1.163C4 8.343 4 10.229 4 14v2h40v-2c0-3.771 0-5.657-1.172-6.828-.943-.944-2.348-1.127-4.828-1.163V8a2 2 0 11-4 0V6H14v2a2 2 0 11-4 0V6.009z" clip-rule="evenodd"/>
</svg>
